X:1
T:Title
%%score [ 1 2 3 4 ]
L:1/8
Q:1/4=160
M:2/2
K:F
V:1 treble nm="S."
V:2 treble-8 nm="A."
V:3 treble-8 nm="T."
V:4 bass nm="B."
V:1
 z8 | z8 | z8 | z8 | z2 G2 A4 | F2 F2 G4 | A4 B2 AG | F2 G4 ^F2 | G8 | z4 c4 | c3 B A2 A2 | %11
w: ||||Et il|ya trois da-|mes à * *|* Pa- *|ris;|Elles|ont fait leur mai-|
 B2 cB A4 | z8 | z8 | z2 A2 B2 AG | A4 z4 | z2 A2 B2 AG | A8 | z8 | z4 D2 DD | D2 G2 G2 ^F2 | %21
w: son blan- * chir|||Et hors mo- ril-|lon,|et hors mo- ril-|lon,||hors mo- ril-|lon, par bon a-|
 G2 A2 B2 AG | F2 z2 z4 | z2 G2 A2 B2 | A2 G2 z4 | z4 z2 G2 | G2 ^F2 G2 A2 | B2 AG F4 | z8 | %29
w: mour, Et quelle heure il|est?|Il n'est point|heu- re,|Il|n'est point jour; Et|quelle heure il est?||
 z2 A2 B2 AG | F2 G2 G2 ^F2 | G4 z4 | A4 G2 F2 | G4 A4 | A2 G2- G^FFE | G8- | G8 | z8 | z8 | %39
w: Et quelle heure il|est? Il n'est point|jour.|Elles ont fait|leur mai-|son blan- * * * *|chir,||||
 z4 c4 | c3 B A2 A2 | B2 cB A2 A2 | B2 AG A4 | z4 z2 A2 | B2 AG A4 | D4 D2 D2 | D4 G4 | G4 ^F4 | %48
w: Et|tout au- tour de|fleurs de * lys, Et|hors mo- ril- lon,|Et|hors mo- ril- lon,|hors mo- ril-|lon, Par|bon a-|
 G4 D2 DD | D2 G2 G2 ^F2 | G2 z2 z4 | z2 G2 A2 B2 | A2 G2 z4 | z4 z2 G2 | G2 ^F2 G2 A2 | %55
w: mour, hors mo- ril-|lon, par bon a-|mour|Il n'est point|heure, *|Il|n'est point jour; Et|
 B2 AG F2 G2 | G2 ^F2 G2 A2 | B2 AG F2 G2 | G2 ^F2 G4- | G8 |] A8 | B4 A4 | B6 A2 | G4 G4 | F4 F4 | %65
w: quelle heure il est? Il|n'est point jour; Et|quelle heure il est? Il|n'est point jour.||A|Pa- ris|sur le|pe- tit,|pe- tit|
 G8 | z4 B4 | B4 B4 | B4 A4 | A4 G4 | A4 z4 | G4 F2 G2 | F4 z4 | G4 G2 G2 | A4 B4 | A4 G4 | F4 G4 | %77
w: pont|Les|trois fil-|les jou-|er s'en|vont|Par bon a-|­amour.|Quelle heure il|est? Il|n'est point|heu- re.|
 G4 F2 G2 | A4 G4 | G4 ^F4 | G4 z4 | z8 | z8 | z4 c4 | B3 AGF A2- | AG G4 ^F2 | G3 A B2 c2- | %87
w: Quelle heure il|est? Il|n'est point|jour.|||Il|n'est * * * *|* * point *|jour, * * il|
 cB G2 A4 | G2 d2- dc B2- | B2 AG F3 G | A2 B2- BA d2- | d2 ^c2 d2 B2 | Bc d2 G4 | z4 G4 | B4 c4 | %95
w: * * n'est point|jour. La * * plus|* * * jeu- *|ne vit * * son-|* a- mi, hors|* mo- ril- lon|Qui|tan- tôt|
 d2 d2 c4 | B4 A2 c2 | B2 d2- dA d2- | d2 ^c2 d4 | z8 | z8 | z8 | B4 A2 G2 | F4 G4 | A4 B2 G2- | %105
w: vint par- ler|* lui, vint|par- ler * * *|* * lui.||||Quelle heure il|est? Il|n'est point heu-|
 G2 ^F2 G4 | G4 F2 G2 | A4 G4 | G4 ^F4 ||[M:3/2] G8 B4 | B8 B4 | A8 A4 | A6 G2 A2 B2 | c8 c4 | %114
w: * * re.|Quelle heure il|est? Il|n'est point|jour. Ré-|veil- lez|vous, fil-|let- tes de re-|nom, Et|
 B6 A2 B4 | A4 G8 | F4 z4 F4 | A8 A4 | B8 B4 | A6 G2 A2 B2 | c6 B2 A2 G2 | B4 A6 G2 | G8 ^F4 || %123
w: gar- dez- vous|de do-|lour; Con-|gé de|vous hum-|ble- * ment *|nous * pre- *|nons jus- ques|au re-|
[M:2/2] G4 z4 | z8 | z4 B2 AG | F2 G2 A2 G2 | F2 G2 G2 GG | A2 G2 G2 ^F2 | G4 z4 | z8 | z4 B2 AG | %132
w: tour.||Quelle heure il|est? Il n'est point|heu- re; Quelle heure il|est? Il n'est point|jour.||Quelle heure il|
 F2 G2 A2 G2 | F2 G2 G2 GG | A2 G2 G2 ^F2 | G8 |] %136
w: est? Il n'est point|heu- re; Quelle heure il|est? Il n'est point|jour.|
V:2
 z8 | z8 | z8 | z4 z2 d2 | e4 c2 c2 | d4 e4 | f2 ed d2 c2 | d8- | d8 | z8 | z8 | z8 | f4 f3 e | %13
w: |||Et|il ya trois|da- mes|à * * Pa *|ris;|||||Elles ont fait|
 d2 d2 c2 c2 | d4 z4 | z2 d2 e2 dc | d2 f2 g2 fe | f8 | d2 dd d2 g2 | g2 ^f2 g2 =fe | d2 c2 d4 | %21
w: leur mai- son blan-|chir,|Et hors mo- ril-|lon, et hors mo- ril-|lon,|hors mo- ril- lon, par|bon a- mour, par *|bon a- mour,|
 z2 c2 d2 cB | A2 z2 z4 | z2 B2 A2 G2 | F2 G2 z4 | z4 z2 G2 | A2 A2 G2 c2 | d2 cB A4 | z8 | %29
w: Et quelle heure il|est?-|Il n'est point|heu- re,|Il|n'est point jour; Et|quelle heure il est?||
 z2 f2 d2 dd | d2 c2 d2 d2 | B8 | d4 c2 d2 | d4 f4 | f2 d2- dcBA | B4 z4 | B4 c3 B | A2 A2 B2 B2 | %38
w: Et quelle heure il|est? Il n'est point|jour.|Elles ont fait|leur mai-|son blan- * * * *|chir,|Et tout au-|tour de fleurs *|
 A2 G2 G4 | z8 | z4 z2 f2 | d2 e2 f2 f2 | e2 fe f2 d2 | e2 dc d2 f2 | g2 fe f4 | f4 f2 f2 | f4 c4 | %47
w: de * lys||de|fleurs de lys, Et|hors mo- ril- lon, Et|hors mo- ril- lon, Et|hors mo- ril- lon,|hors mo- ril-|lon, Par|
 d4 d4 | B4 B2 BB | F2 c2 d2 d2 | d2 z2 z4 | z2 B2 A2 G2 | F2 G2 z4 | z4 z2 G2 | G2 A2 G2 f2 | %55
w: bon a-|mour, hors mo- ril-|lon, par bon a-|mour|Il n'est point|heure, *|Il|n'est point jour; Et|
 d2 dd d2 B2 | d2 d2 B2 f2 | d2 dd d2 c2 | d4 d4 | d8 |] d8 | d4 d4- | d4 d4- | d4 _e4 | d4 d4 | %65
w: quelle heure il est? Il|n'est point jour; Et|quelle heure il est? Il|n'est point|jour.|A|Pa- ris|* sur|* le-|pe- tit|
 B8 | z4 d4 | g4 g4 | g4 f4 | f4 d4 | f4 z4 | d4 d2 c2 | d4 z4 | d4 d2 d2 | f4 d4 | c4 _e2 d2 | %76
w: pont|Les|trois fil-|les jou-|er s'en|vont|Par bon a-|mour.|Quelle heure il|est? Il|n'est point *|
 d4 B4 | d4 d2 c2 | d4 B2 c2 | d2 _e2 d4 | B4 z4 | z8 | z8 | z8 | d6 f2 | e2 c2 d4 | B3 c d2 e2- | %87
w: heu- re.|Quelle heure il|est? Il *|n'est * point|jour.||||Et quelle|heure il est?|Il * * n'est|
 ed g4 ^f2 | g3 f e2 d2- | d2 c2 d3 e | f2 g2- gf d2 | e4 d3 c | d2 f2 e2 g2- | gd f2 e4 | d4 z4 | %95
w: * * point *|jour, * * La|* plus jeu- *|ne vit * * son|a- mi, *|* * * vit|* * son a-|mi|
 d4 f4 | g4 a2 a2 | g4 f4 | e4 z4 | z8 | z8 | z8 | d4 c2 B2 | A2 d2 B2 c2- | c2 BA G2 B2 | A4 G4 | %106
w: Qui tan-|tôt vint par-|ler *|lui.||||Quelle heure il|est? Il * n'est|* * * point *|heu- re.|
 d4 d2 c2 | d4 B2 c2 | d2 _e2 d4 ||[M:3/2] d8 d4 | g8 g4 | f8 f4 | f8 f4 | e6 d2 e2 f2 | g8 g4 | %115
w: Quelle heure il|est? Il *|n'est * point|jour. Ré-|veil- lez-|vous, fil-|let- tes,|gar- * * *|dez- vous|
 f4 d8 | d4 z4 d4 | f8 f4 | f8 f4 | f8 f4 | e6 d2 e2 f2 | g4 f6 e2 | d2 c2 d8 ||[M:2/2] B4 z4 | %124
w: de do-|lour; Con-|gé de|vous hum-|ble- ment|nous * pre- *|nons jus- ques|au * re-|tour.|
 z8 | z4 d2 cB | A2 B2 c2 G2 | A2 G2 d2 dd | d2 c2 d2 d2 | B4 z4 | z8 | z4 d2 cA | A2 B2 c2 G2 | %133
w: |Quelle heure il|est? Il n'est point|heu- re; Quelle heure il|est? Il n'est point|jour.||Quelle heure il|est? Il n'est point|
 A2 G2 d2 dd | d2 c2 d2 d2 | d8 |] %136
w: heu- re; Quelle heure il|est? Il n'est point|jour.|
V:3
 z2 G2 A4 | F2 F2 G4 | A4 B2 AG | G2 ^F2 G4- | G2 c2 c2 A2- | A2 A2 B4 | c4 G4 | A4 A4 | G8 | %9
w: Et il|ya trois da-|mes à * *|Pa- * ris,|* et il ya|* trois da-|mes *|à Pa-|ris;|
 c4 c3 B | A2 A2 c2 BA | G2 G2 A4 | z8 | z8 | z2 A2 d2 cB | A4 z4 | z2 c2 B2 cB | c8 | z8 | %19
w: Elles ont fait|leur mai- son * *|* blan- chir|||Et hors mo- ril-|lon,|et hors mo- ril-|lon,||
 z4 B2 BB | B2 G2 A2 A2 | G2 z2 z4 | z2 A2 B2 AG | F2 z2 z4 | z4 z2 A2 | B2 AG F2 z2 | z8 | z8 | %28
w: hors mo- ril-|lon, par bon a-|mour;|Et quelle heure il|est?|Et|quelle heure il est?|||
 z2 G2 G2 ^F2 | G2 d2 B2 BB | B2 G2 A2 A2 | G8 | F4 G2 A2 | B4 c4- | c2 B2 A4 | G8- | G8 | z8 | %38
w: Il n'est point|jour; Et quelle heure il|est? Il n'est point|jour.|Elles ont fait|leur mai-|* son blan-|chir,|||
 z8 | c4 c3 B | A4 c4 | B2 B2 c2 c2 | B2 cB c4 | z4 z2 c2 | B2 cB c4 | B4 B2 B2 | A4 G4 | A4 A4 | %48
w: |Et tout au-|tour- de|fleurs de lys, Et|hors mo- ril- lon,|Et|hors mo- ril- lon,|hors mo- ril-|lon, Par|bon a-|
 G4 F2 FF | B2 G2 A2 A2 | G2 A2 B2 AG | F2 z2 z4 | z4 z2 A2 | B2 AG F2 z2 | z4 z2 d2 | %55
w: mour, hors mo- ril-|lon, par bon a-|mour, Et quelle heure il|est?|Et|quelle heure il est?|Et|
 B2 BB B2 G2 | A2 A2 G2 F2 | G2 AB B2 c2 | A2 A2 G4- | G8 |] A8 | G4 F4 | G6 A2 | B4 c4 | A4 A4 | %65
w: quelle heure il est? Il|n'est point jour Et|quelle heure il est? Il|n'est point jour.||A|Pa- ris|sur le|pe- tit,|pe- tit|
 G8 | z4 G4 | d4 d4 | d4 d4 | c4 B4 | A4 z4 | B4 A2 G2 | A4 z4 | B4 A2 G2 | F4 G4 | A4 B4 | A4 G4 | %77
w: pont|Les|trois fil-|les jou-|er s'en|vont|Par bon a-|mour.|Quelle heure il|est? Il|n'est point|heu- re.|
 B4 A2 G2 | F4 G4 | A4 A4 | G2 d4 c2 | B2 AG A2 GF | E2 D4 A2- | AG G4 ^F2 | G3 A B2 c2- | %85
w: Quelle heure il|est? Il|n'est point|jour; Il n'est|point * * * * *|* jour, il|* * n'est point|jour, * * point|
 cBAG A4 | G4 z4 | z8 | G8 | _E4 D2 d2- | d2 G2- GA B2 | A4 B2 G2 | GF D2 z2 G2 | B4 c4 | %94
w: |jour.||La|plus jeu- ne|* vit * * son|a- * *|* * mi Qui|tan- tôt|
 d2 d2 c4 | B4 A2 c2 | d2 e2 f3 e | dc B2- Bc d2 | A4 B4 | A2 G2 F4 | G4 A4 | B4 A4 | G4 z4 | z8 | %104
w: vint par- ler|* lui, qui|vint par- ler *||lui. Quelle|heure il est?|Il n'est|point heu-|re.||
 z8 | z8 | B4 A2 G2 | F4 G4 | A4 A4 ||[M:3/2] G8 G4 | d8 d4 | d8 d4 | c8 c4- | c4 c8 | d8 d4- | %115
w: ||Quelle heure il|est? Il|n'est point|jour. Ré-|veil- lez-|vous, fil-|let- tes,|* gar-|dez de|
 d4 B8 | A4 z4 A4 | d8 d4 | d8 d4 | c8 c4 | c8 c4 | d8 c4 | B4 A8 ||[M:2/2] G4 B2 AG | %124
w: * do-|lour; Con-|gé de|vous hum-|ble- ment|pre- nons|jus- ques|au re-|tour. Quelle heure il|
 F2 G2 A2 B2 | A2 G2 z4 | z8 | z4 B2 AG | F2 G2 A2 A2 | G4 B2 AG | F2 G2 A2 B2 | A2 G2 z4 | z8 | %133
w: est? Il n'est point|heu- re.||Quelle heure il|est? Il n'est point|jour. Quelle heure il|est? Il n'est point|heu- re;||
 z4 B2 AG | F2 G2 A2 A2 | G8 |] %136
w: Quelle heure il|est? Il n'est point|jour.|
V:4
 G,4 F,E,D,C, | D,2 D,2 G,,2 C,2- | C,A,, D,4 C,B,, | A,,4 G,,4 | C,4 F,4 | D,4 G,4 | F,4 E,4 | %7
w: Et il * * *|ya trois da- *|* mes à * *|Pa- ris,|trois *|da- *|mes à|
 D,8 | G,,8 | z8 | z8 | z4 F,4 | F,3 E, D,2 D,2 | F,2 E,D, E,2 E,2 | D,4 z4 | z2 D,2 G,2 F,E, | %16
w: Pa-|ris;|||Elles|ont fait leur mai-|son * * * blan-|chir,|Et hors mo- ril-|
 D,2 A,2 G,2 G,G, | F,8 | B,2 B,B, B,2 G,2 | A,2 A,2 G,4- | G,2 E,2 D,2 D,2 | G,,2 z2 z4 | %22
w: lon et hors mo- ril-|lon,|hors mo- ril- lon, par|bon a- mour,|* par bon a-|mour;|
 z2 D,2 G,2 F,E, | D,2 z2 z4 | z4 z2 D,2 | G,2 F,E, D,2 z2 | z8 | z8 | z2 G,,2 A,,2 A,,2 | %29
w: Et quelle heure il-|est?|Et|quelle heure il est?|||Il n'est point|
 G,,2 F,2 G,2 F,E, | D,2 _E,2 D,2 D,2 | G,,8 | D,4 E,2 D,2 | G,4 F,4- | F,2 G,2 D,4 | G,,8 | %36
w: jour; Et quelle heure il|est? Il n'est point|jour.|Elles ont fait|leur mai-|* son blan-|chir,|
 z4 C,4 | C,3 B,, A,,2 A,,2 | B,,2 C,B,, A,,4- | A,,4 z4 | z4 z2 F,2 | G,2 G,2 F,4 | %42
w: Et|tout au- tour de|fleurs de * lys||de|fleurs de lys,|
 G,2 G,G, F,2 F,2 | G,2 F,E, D,2 A,2 | G,2 G,G, F,4 | B,,4 B,,2 B,,2 | D,4 _E,4 | D,4 D,4 | %48
w: hors mo- ril- lon, Et|hors mo- ril- lon, Et|hors mo- ril- lon,|hors mo- ril-|lon, Par|bon a-|
 G,,4 B,,2 B,,B,, | B,,2 _E,2 D,2 D,2 | G,,2 C,2 D,2 C,B,, | A,,2 z2 z4 | z4 z2 C,2 | %53
w: mour, hors mo- ril-|lon, par bon a-|mour, Et quelle heure il|est?|Et|
 D,2 C,B,, A,,2 z2 | z4 z2 D,2 | G,2 F,E, D,2 E,2 | D,2 D,2 G,,2 D,2 | G,2 F,E, D,2 _E,2 | %58
w: quelle heure il est?|Et|quelle heure il est? Il|n'est point jour; Et|quelle heure il est? Il|
 D,2 D,2 G,,4- | G,,8 |] D,8 | G,4 D,4 | G,,4 G,4- | G,4 C,4 | D,4 D,4 | G,,8 | z4 G,4 | G,4 G,4 | %68
w: n'est point jour.||A|Pa- ris|sur *|* le|pe- tit|pont|Les|trois fil-|
 G,4 D,4 | F,4 G,4 | D,4 z4 | G,4 D,2 E,2 | D,4 z4 | G,,4 G,,2 G,,2 | D,4 G,,4 | F,4 G,4 | %76
w: les jou-|er s'en|vont|Par bon a-|mour.|Quelle heure il|est? Il|n'est point|
 D,4 G,,4 | G,4 D,2 E,2 | D,4 _E,4 | D,2 C,2 D,4 | G,,6 A,,2 | G,,4 F,,4 | G,,3 A,, B,,2 C,2- | %83
w: heu- re.|Quelle heure il|est? Il|n'est * point|jour; il|n'est point|jour, * * il|
 C,B,, G,,2 A,,4 | G,,2 G,4 F,2 | G,2 E,2 D,4 | z2 G,4 C,2- | C,D, E,2 D,4 | G,,4 z4 | z8 | z8 | %91
w: * * n'est point|jour, point *|* * jour,|il- n'est|* * * point|jour.|||
 z4 G,,4 | B,,4 C,4 | D,2 D,2 C,4 | B,,4 A,,2 A,2- | A,2 G,2 A,4 | B,2 G,4 F,2 | G,4 z4 | z4 G,4 | %99
w: Qui|tan- tôt|vint par- ler|* lui, à|* * lui,|à * *|lui|Quelle|
 F,2 E,2 D,4 | E,4 F,2 D,2- | D,2 G,4 ^F,2 | G,4 z4 | z8 | z8 | z8 | G,4 D,2 E,2 | D,4 E,4 | %108
w: heure il est?|Il n'est point|* heu- *|re.||||Quelle heure il|est? Il|
 D,2 C,2 D,4 ||[M:3/2] G,,8 G,4 | G,8 G,4 | D,8 D,4 | F,6 E,2 F,2 G,2 | A,8 A,4 | G,8 G,4 | %115
w: n'est * point|jour. Ré-|veil- lez-|vous, fil-|let- tes, de re-|nom, gar-|dez- vous|
 D,4 G,8 | D,4 z4 D,4 | D,8 D,4 | B,,6 C,2 D,2 E,2 | F,8 F,4 | !tenuto!C,8 C,4 | G,4 D,4 F,4 | %122
w: de do-|lour; Con-|gé de|vous * hum- *|ble- ment|nous pre-|nons jus- ques|
 G,4 D,8 ||[M:2/2] G,,4 G,2 F,E, | D,2 E,2 D,2 G,2 | F,2 G,2 z4 | z8 | z4 G,,2 G,,G,, | %128
w: au re-|tour. Quelle heure il|est? Il n'est point|heu- re.||Quelle heure il|
 D,2 E,2 D,2 D,2 | G,,4 G,2 F,E, | D,2 E,2 D,2 G,2 | F,2 G,2 z4 | z8 | z4 G,,2 G,,G,, | %134
w: est? Il n'est point|jour. Quelle heure il|est? Il n'est point|heu- re;||Quelle heure il|
 D,2 _E,2 D,2 D,2 | G,,8 |] %136
w: est? Il n'est point|jour.|

